images/phabricator.svg

<?xml version="1.0" encoding="UTF-8"?>
<svg width="128px" height="128px" viewBox="0 0 128 128" version="1.1" xmlns="http://www.w3.org/2000/svg" xmlns:xlink="http://www.w3.org/1999/xlink">
    <g id="128x128" stroke="none" stroke-width="1" fill="none" fill-rule="evenodd">
        <g id="phabricator">
            <rect id="Rectangle" fill="#D6336C" x="0" y="0" width="128" height="128"></rect>
            <path d="M58.3619595,42.7014816 C58.6780566,42.5655505 63.3066223,47.4137628 63.3066223,47.4137628 L63.3066223,47.4137628 L66.2643887,47.4590732 C66.2643887,47.4590732 70.6220139,42.5655505 70.9381111,42.7014816 L70.9381111,42.7014816 L75.4763633,44.7857598 C75.7748995,44.9141393 75.7512061,50.6805164 75.7476521,51.3208287 L75.7473037,51.3784224 L77.8696704,53.4853557 C77.8696704,53.4853557 84.3948191,53.281459 84.5302893,53.5986317 L84.5302893,53.5986317 L86.6752344,58.1296713 C86.8107046,58.446844 81.9111985,62.9325732 81.9111985,62.9325732 L81.9111985,62.9325732 L81.9337768,65.8777489 C81.9337768,65.8777489 86.8107046,70.3181676 86.652656,70.5673748 L86.652656,70.5673748 L84.8238081,75.0531039 C84.7109162,75.3702767 78.1180325,75.1663799 78.1180325,75.1663799 L78.1180325,75.1663799 L76.0634009,77.2280029 C76.0634009,77.2280029 76.4246548,84.3643902 76.1085576,84.5003214 L76.1085576,84.5003214 L71.5928838,86.1994612 C71.299365,86.3127372 66.6707993,80.9208001 66.6707993,80.9208001 L66.6707993,80.9208001 L63.713033,80.8754898 C63.713033,80.8754898 59.3554077,86.3353924 59.0393106,86.1994612 L59.0393106,86.1994612 L54.5010584,84.3190798 C54.1849612,84.2058038 54.2301179,77.0014509 54.2301179,77.0014509 L54.2301179,77.0014509 L52.1077512,74.8945176 C52.1077512,74.8945176 45.5826026,75.0984143 45.4471323,74.7812416 L45.4471323,74.7812416 L43.3021873,70.250202 C43.1738471,69.9497226 47.564433,65.9079349 48.0269554,65.4833159 L48.0662232,65.4473001 L48.0436448,62.5247796 C48.0436448,62.5247796 43.1667171,58.0843609 43.3021873,57.7671881 L43.3021873,57.7671881 L45.1310352,53.281459 C45.243927,52.9869414 51.8368108,53.1908382 51.8368108,53.1908382 L51.8368108,53.1908382 L53.8914424,51.1292152 C53.8914424,51.1292152 53.5301885,44.695139 53.8462857,44.5818631 L53.8462857,44.5818631 Z M64.6288029,57.2163382 L64.390384,57.2234634 C60.4843262,57.3820497 57.4362463,60.6670534 57.5942949,64.5410922 C57.7523435,68.415131 61.0939421,71.4282723 65,71.2470307 C68.9060579,71.0657892 71.9541377,67.7807855 71.7960891,63.9067467 C71.6380405,60.0553631 68.2964419,57.0422218 64.390384,57.2234634 Z M117.223768,55.3204268 L95.3227497,33.344885 L95.3001714,33.3675402 C78.3438161,16.7612803 51.1820381,16.8745563 34.3837315,33.7300234 C22.8913416,45.2841742 28.1069449,40.0508235 12.7762322,55.3204268 C7.74125592,60.3725358 7.74125592,68.6190278 12.7762322,73.6711369 C28.5585122,89.3938441 23.2525955,84.0925278 34.7675638,95.6466786 L34.7901421,95.6240234 C51.7464973,112.230283 78.9082754,112.139663 95.706582,95.2615403 C107.22155,83.7300447 102.005947,88.9407401 117.223768,73.6711369 C122.258744,68.6190278 122.258744,60.3725358 117.223768,55.3204268 L117.223768,55.3204268 Z M40.7056748,88.9180849 C27.2489668,75.4382423 27.2489668,53.5759765 40.7056748,40.0961339 C54.1398045,26.5936361 75.9279307,26.6162913 89.3846386,40.0961339 C102.818768,53.5759765 102.841347,75.4382423 89.3846386,88.9407401 C75.9279307,102.420583 54.1623828,102.397928 40.7056748,88.9180849 L40.7056748,88.9180849 Z" id="Shape" fill="#FFFFFF" fill-rule="nonzero"></path>
        </g>
    </g>
</svg>

<svg width="128" height="128" xmlns="http://www.w3.org/2000/svg"><g fill="none" fill-rule="evenodd"><path fill="#D6336C" d="M0 0h128v128H0z"/><path d="M58.362 42.701c.316-.135 4.945 4.713 4.945 4.713l2.957.045s4.358-4.893 4.674-4.758l4.538 2.085c.299.128.275 5.895.272 6.535v.057l2.122 2.107s6.525-.204 6.66.114l2.145 4.53c.136.318-4.764 4.804-4.764 4.804l.023 2.945s4.877 4.44 4.719 4.69l-1.83 4.485c-.112.317-6.705.113-6.705.113l-2.055 2.062s.362 7.136.046 7.272l-4.516 1.7c-.294.113-4.922-5.28-4.922-5.28l-2.958-.045s-4.358 5.46-4.674 5.324l-4.538-1.88c-.316-.113-.27-7.318-.27-7.318l-2.123-2.106s-6.525.203-6.66-.114l-2.146-4.53c-.128-.301 4.262-4.343 4.725-4.768l.04-.036-.023-2.922s-4.877-4.44-4.742-4.758l1.829-4.486c.113-.294 6.706-.09 6.706-.09l2.054-2.062s-.36-6.434-.045-6.547zm6.267 14.515l-.239.007c-3.906.159-6.954 3.444-6.796 7.318.158 3.874 3.5 6.887 7.406 6.706 3.906-.181 6.954-3.466 6.796-7.34-.158-3.852-3.5-6.865-7.406-6.684zm52.595-1.896L95.323 33.345l-.023.023c-16.956-16.607-44.118-16.493-60.916.362-11.493 11.554-6.277 6.32-21.608 21.59-5.035 5.053-5.035 13.299 0 18.351C28.56 89.394 23.253 84.093 34.768 95.647l.022-.023c16.956 16.606 44.118 16.516 60.917-.362 11.515-11.532 6.299-6.321 21.517-21.59 5.035-5.053 5.035-13.3 0-18.352zM40.706 88.918c-13.457-13.48-13.457-35.342 0-48.822 13.434-13.502 35.222-13.48 48.679 0 13.434 13.48 13.456 35.342 0 48.845-13.457 13.48-35.223 13.457-48.68-.023z" fill="#FFF" fill-rule="nonzero"/></g></svg>
